X: 30458
T: Old Wheel Of Fortune, The
R: strathspey
M: 4/4
K: Dmajor
|:(3dcB|AFdF EA,CE|(3FFF dF cDBD|AFdF (3EEE CE|1 FA (3GFE DA:|K: Amaj
[2 FA (3Bcd AGAf||
ecac e2 ef|ecac fefa|ecac (3efe (3edc|(3ded (3cdc Bcdf|
ecac e2 ef|ecac f2 f^g|afec af (3efe|(3ded (3cdc B2||

